public/assets/headerphone/basket.svg

<svg width="25" height="24" viewBox="0 0 25 24" fill="none" xmlns="http://www.w3.org/2000/svg">
<g id="24/ basket">
<path id="Vector" d="M5.5 6.99966H19.4735C19.7566 6.99967 20.0366 7.05823 20.2954 7.17157C20.5542 7.2849 20.7861 7.4505 20.976 7.65767C21.166 7.86485 21.3099 8.10902 21.3984 8.37444C21.4869 8.63985 21.5181 8.92063 21.4899 9.19866L20.882 15.1987C20.832 15.6922 20.5979 16.1497 20.2253 16.4825C19.8527 16.8153 19.3681 16.9996 18.8655 16.9997H9.18843C8.71975 16.9998 8.26549 16.8397 7.90299 16.5465C7.5405 16.2533 7.29219 15.8452 7.20032 15.3917L5.5 6.99966ZM5.5 6.99966L4.69 3.757C4.63583 3.54075 4.51095 3.34881 4.33521 3.21166C4.15946 3.0745 3.94293 3.00001 3.72 3H2.5M8.5 21H10.5M16.5 21H18.5" stroke="#202020" stroke-width="1.5" stroke-linecap="round" stroke-linejoin="round"/>
</g>
</svg>

<svg width="25" height="24" fill="none" xmlns="http://www.w3.org/2000/svg"><path d="M5.5 7h13.974a2.05 2.05 0 0 1 1.502.658 1.994 1.994 0 0 1 .514 1.54l-.608 6a1.99 1.99 0 0 1-.657 1.285 2.042 2.042 0 0 1-1.36.517H9.189c-.468 0-.923-.16-1.285-.453a1.996 1.996 0 0 1-.703-1.155L5.5 7Zm0 0-.81-3.243A1 1 0 0 0 3.72 3H2.5m6 18h2m6 0h2" stroke="#202020" stroke-width="1.5" stroke-linecap="round" stroke-linejoin="round"/></svg>
